X:1
T:Harding, LMD
T:Janet L. Harding, 1901
T:Harding, LMD
T:Public Domain
C:Janet L. Harding, 1901
Z:Public Domain
%%score ( 1 2 ) ( 3 4 )
L:1/8
M:3/4
K:F
V:1 treble 
V:2 treble 
V:3 bass 
V:4 bass 
V:1
 [Ac][^G=B] [_Bd] | [Ac]3 [CA] [DB][=B,^G] | [CA]3 [FA] [EA][DA] | [EB]3 [DB] [EB]>[DB] | %4
 [CA]3 [Ac] [^G=B][_Bd] | [Ac]3 [CA] [DB][=B,^G] | [CA]3 [FA] [EA][_EA] | [DB][GB] [DB]2 [EB]2 | %8
 [FA]3 [Ad] [Ac][CF] | FC C[DB] [CA][B,C] | A,C C[CA] [CE][CF] | [CG][CA] [EB]2 [EG]2 | %12
 [Fc]3 [Ad] [Ac][CF] | FC C[FB] [FA]C | CC C[CF] [CE][CF] | [CG][CA] [EB]2 [CE]2 | [CF]3 |] %17
V:2
 x3 | x6 | x6 | x6 | x6 | x6 | x6 | x6 | x6 | A3 x3 | F3 x3 | x6 | x6 | A3 x C x | F3 x3 | x6 | %16
 x3 |] %17
V:3
 z3 | z C, [F,A,] z [F,,F,] z | z C, [F,A,] z [F,,F,] z | z C, [E,B,] z E, z | z C, [F,A,] z3 | %5
 z C, [F,A,] z [F,,F,] z | z C, [F,A,] z [F,,F,] z | F,B, [C,B,]2 [C,C]2 | [F,,F,C]3 z3 | %9
 z [F,A,] [F,A,] z3 | z [F,A,] [F,A,][F,A,] [G,B,][F,A,] | [E,B,][F,A,] [G,C]2 [B,C]2 | [A,C]3 z3 | %13
 z [F,A,] [F,A,][F,D] [F,C][G,B,] | A,A, A,[A,C] [G,B,][F,A,] | [E,B,][F,A,] [C,G,]2 [C,B,]2 | %16
 [F,,F,A,]3 |] %17
V:4
 x3 | F,,3 x3 | F,,3 x3 | C,,3 x3 | F,,3 x3 | F,,3 x3 | F,,3 x3 | B,,2 x4 | x6 | x6 | x6 | x6 | %12
 x6 | x6 | F,3 x3 | x6 | x3 |] %17

